PortableApps/LibreOfficePortable/App/libreoffice/help/media/icon-themes/cmd/sc_shownote.svg

<svg viewBox="0 0 16 16" xmlns="http://www.w3.org/2000/svg"><path d="m.5 1.5c.0000238-.000024 0 10.000124 0 10.000124h3v3.999937l4.5-3.999937h7.5v-10.000124z" fill="#fff"/><path d="m.5 1c-.27614237 0-.5.2238576-.5.5.00000895.02947.0026233.058881.0078125.087891h-.0078125v4.412109 5.5c.00002761.276131.22386906.499972.5.5h2.5v3.5c.0007774.430893.5097988.659116.8320312.373047l4.3574219-3.873047h7.3105469c.276131-.000028.499972-.223869.5-.5v-10c-.000028-.2761309-.223869-.4999724-.5-.5zm.5 1h14v9h-7c-.1224905.000223-.2406387.0454-.3320312.126953l-3.6679688 3.259766v-2.886719c-.0000276-.276131-.2238691-.499972-.5-.5h-2.5v-5z" fill="#eac282"/></svg>

<?xml version="1.0" encoding="UTF-8" standalone="no"?>
<svg xmlns="http://www.w3.org/2000/svg" xmlns:sodipodi="http://sodipodi.sourceforge.net/DTD/sodipodi-0.dtd" xmlns:inkscape="http://www.inkscape.org/namespaces/inkscape" viewBox="0 0 16 16" version="1.1">
 <metadata id="metadata12">
  <rdf:RDF>
   <cc:Work>
    <dc:format>image/svg+xml</dc:format>
    <dc:type rdf:resource="http://purl.org/dc/dcmitype/StillImage"/>
   </cc:Work>
  </rdf:RDF>
 </metadata>
 <defs id="defs10"/>
 <sodipodi:namedview pagecolor="#ffffff" bordercolor="#666666" borderopacity="1" objecttolerance="10" gridtolerance="10" guidetolerance="10" inkscape:pageopacity="0" inkscape:pageshadow="2" inkscape:window-width="2560" inkscape:window-height="1319" id="namedview8" showgrid="false" inkscape:zoom="10.429825" inkscape:cx="-4.9491525" inkscape:cy="8" inkscape:window-x="0" inkscape:window-y="30" inkscape:window-maximized="1" inkscape:current-layer="svg6"/>
 <path d="m 0.5,1.5 c 2.38e-5,-2.4e-5 0,10.000124 0,10.000124 h 3 v 3.999937 L 8,11.500124 h 7.5 V 1.5 Z" id="path2" inkscape:connector-curvature="0" sodipodi:nodetypes="cccccccc" fill="#ffffff"/>
 <path d="M 0.5,1 C 0.22385763,1 0,1.2238576 0,1.5 8.9536908e-6,1.52947 0.0026233,1.558881 0.0078125,1.587891 H 0 V 6 11.5 c 2.7608953e-5,0.276131 0.22386906,0.499972 0.5,0.5 H 3 v 3.5 c 7.774e-4,0.430893 0.5097988,0.659116 0.8320312,0.373047 L 8.1894531,12 H 15.5 c 0.276131,-2.8e-5 0.499972,-0.223869 0.5,-0.5 V 1.5 C 15.999972,1.2238691 15.776131,1.0000276 15.5,1 Z M 1,2 h 14 v 9 H 8 c -0.1224905,2.23e-4 -0.2406387,0.0454 -0.3320312,0.126953 L 4,14.386719 V 11.5 C 3.9999724,11.223869 3.7761309,11.000028 3.5,11 H 1 V 6 Z" id="path4" inkscape:connector-curvature="0" sodipodi:nodetypes="sccccccccccccccsccccccccccc" fill="#808080"/>
</svg>
